X:1
T:Title
%%score ( 1 2 ) { ( 3 5 ) | 4 }
L:1/8
M:3/4
K:Eb
V:1 treble nm="Bright Piano"
V:2 treble 
V:3 bass nm="Bright Piano"
V:5 bass 
V:4 bass 
V:1
 z2 z2[Q:1/4=100] B2 | [Ge]4 [Bd][Ac] | [Ac]2 [GB]2 [EG]2 | [EG]2 [DF]2 [FA]2 | [FA]2 [EG]2 [EG]2 | %5
 F2 B2 [Fd]2 | [Fd]4 [Ec]2 | [Ec]4 [DB]2 | [DB]4 [GB]2 | [GB]2 [Ac]2 [GB]2 | [FA]2 [GB]2 [FA]2 | %11
 [EG]2 [FA]2 [EG]2 | [EG]2 [DF]2 z _D | C2- [CA]2 [Ec]2 | [Ac]2 [GB]2 [FA]2 | [EG]4 [DF]2 | %16
[M:2/4] E4 |] %17
V:2
 x6 | x6 | x6 | x6 | x6 | D4 z2 | x6 | x6 | x6 | x6 | x6 | x6 | z2 z2 E2 | E2 z2 z2 | x6 | x6 | %16
[M:2/4] x4 |] %17
V:3
 z2 z2 B,2 | B,4 E2 | E4 G,2 | B,4 B,2 | B,4 B,2 | B,4 z2 | B,4 A,2 | A,4 B,2 | B,4 B,2 | B,4 B,2 | %10
 B,4 B,2 | B,4 B,2 | B,4 B,2 | A,4 A,2 | F,2 G,2 A,2 | B,4 A,2 |[M:2/4] G,4 |] %17
V:4
 z2 z2 B,,2 | E,4 E,2 | E,4 E,2 | B,,4 D,2 | E,4 E,2 | F,2 z2 B,,2 | B,,2 D,2 F,2 | F,6 | %8
 B,,4 E,2 | E,4 E,2 | B,,4 D,2 | E,4 E,2 | B,,4 G,,2 | A,,4 A,,2 | A,,2 B,,2 C,2 | B,,6 | %16
[M:2/4] E,4 |] %17
V:5
 x6 | x6 | x6 | x6 | x6 | z2 D,2 B,2 | x6 | x6 | x6 | x6 | x6 | x6 | x6 | x6 | x6 | x6 | %16
[M:2/4] x4 |] %17

